src/categories-icons-sprite/categories/svg-cat-garden-fertilizers.svg

<svg width="35" height="32" viewBox="0 0 35 32" fill="none" xmlns="http://www.w3.org/2000/svg">
<path class="p-EFE2DD" d="M28.1255 9.17279H6.23633C7.68027 4.6527 11.9073 0 17.1809 0C22.4545 0 26.6816 4.6527 28.1255 9.17279Z" fill="#B9DFFC"/>
<path class="p-CDBFBA" d="M28.1252 9.17279H17.1807V0C22.4543 0 26.6813 4.6527 28.1252 9.17279Z" fill="#A1D1FD"/>
<path class="p-FF9100" d="M34.3617 31.9999H0L2.05088 29.97C3.03444 28.9656 3.57853 27.6681 3.57853 26.266V23.4757C3.57853 19.981 4.01806 16.4863 4.85506 13.0752L5.71312 9.70605H28.6487L29.5068 13.0752C30.3438 16.4863 30.7833 19.9811 30.7833 23.4757V26.266C30.7833 27.668 31.3274 28.9655 32.3109 29.97L34.3617 31.9999Z" fill="#A1D1FD"/>
<path class="p-FF641A" d="M34.3615 31.9999H17.1807V9.70605H28.6484L29.5065 13.0752C30.3435 16.4863 30.783 19.9811 30.783 23.4757V26.266C30.783 27.668 31.3271 28.9655 32.3106 29.97L34.3615 31.9999Z" fill="#4D98CB"/>
<path class="p-FFD396" d="M3.5791 6.58301V11.0036H30.7838V6.58301H3.5791Z" fill="#76B7E2"/>
<path class="p-FFB64C" d="M30.783 6.58301H17.1807V11.0036H30.783V6.58301Z" fill="#65B3E7"/>
<path class="p-FFF5F5" d="M7.76465 15.189V25.7221H26.5987V15.189H7.76465Z" fill="#B9DFFC"/>
<path class="p-EFE2DD" d="M26.5977 15.189H17.1807V25.7221H26.5977V15.189Z" fill="#A1D1FD"/>
<path class="p-FF9100" d="M22.4135 20.303H11.9502V21.4669H22.4135V20.303Z" fill="#58ADE5"/>
<path class="p-FF641A" d="M22.4123 20.303H17.1807V21.4669H22.4123V20.303Z" fill="#4D98CB"/>
</svg>

<svg width="35" height="32" fill="none" xmlns="http://www.w3.org/2000/svg"><path class="p-EFE2DD" d="M28.125 9.173H6.236C7.68 4.653 11.907 0 17.181 0c5.273 0 9.5 4.653 10.944 9.173z" fill="#B9DFFC"/><path class="p-CDBFBA" d="M28.125 9.173H17.181V0c5.273 0 9.5 4.653 10.944 9.173z" fill="#A1D1FD"/><path class="p-FF9100" d="M34.362 32H0l2.05-2.03a5.243 5.243 0 001.529-3.704v-2.79c0-3.495.44-6.99 1.276-10.4l.858-3.37H28.65l.858 3.37a43.68 43.68 0 011.276 10.4v2.79c0 1.402.544 2.7 1.528 3.704L34.36 32z" fill="#A1D1FD"/><path class="p-FF641A" d="M34.361 32h-17.18V9.706h11.467l.858 3.37a43.68 43.68 0 011.277 10.4v2.79c0 1.402.544 2.7 1.528 3.704L34.36 32z" fill="#4D98CB"/><path class="p-FFD396" d="M3.58 6.583v4.42h27.204v-4.42H3.579z" fill="#76B7E2"/><path class="p-FFB64C" d="M30.783 6.583H17.181v4.42h13.602v-4.42z" fill="#65B3E7"/><path class="p-FFF5F5" d="M7.765 15.189v10.533h18.834V15.19H7.765z" fill="#B9DFFC"/><path class="p-EFE2DD" d="M26.598 15.189H17.18v10.533h9.417V15.19z" fill="#A1D1FD"/><path class="p-FF9100" d="M22.413 20.303H11.95v1.164h10.463v-1.164z" fill="#58ADE5"/><path class="p-FF641A" d="M22.412 20.303h-5.231v1.164h5.231v-1.164z" fill="#4D98CB"/></svg>
